X: 11172
Q: "Slow"
M: C
L: 1/8
K: F
|:\
f3g a2ag | (gf)(fc) c4 |\
d2c2 f2(eg/f/) | e2Td2 c4 |\
f2f2 (fa)(ac') | c2(c>d) (dc)(BA) |\
(Bc)(de) Hf>{gfef}g Ha z/B/ | A2 TG2 F3z :|
|:\
d2c2 f2(eg/f/) | e2Td2 c4 |\
f2f2 (fa)(ac') | c2(c>d) (dc)(BA) |\
(Bc)(de) Hf>{gfef}g Ha z/B/ | A2 TG2 F3z :|


